svgs/carnet.svg

<svg viewBox="0 0 192 192" xml:space="preserve" style="fill-rule:evenodd;clip-rule:evenodd;stroke-linejoin:round;stroke-miterlimit:2" xmlns="http://www.w3.org/2000/svg"><path d="m1967.59 35.127-22.21 8.852a6 6 0 0 0-3.5 7.367l.46 1.477-.06.057-16.34 15.009a6.006 6.006 0 0 0-.78 7.971l34.42 46.846-2.6 28.422a6.002 6.002 0 0 0 5.43 6.521l73.33 6.703a5.998 5.998 0 0 0 6.52-5.429l.28-3.093 20.41-6.868a5.995 5.995 0 0 0 3.79-7.542l-.87-2.678c.13-.112.26-.232.39-.358l16.01-16.256a6.006 6.006 0 0 0 .47-7.891l-32.47-41.817-.09-.124 2.87-31.424c.3-3.3-2.13-6.219-5.43-6.521l-73.33-6.703a5.998 5.998 0 0 0-6.52 5.429l-.18 2.05Zm72.96 10.628-9.7 106.1-61.37-5.61 9.7-106.1 61.37 5.61Zm5.56 71.019-2.38 25.993 9.76-3.284-7.38-22.709Zm4.84-23.914 10.75 33.052 8.34-8.465-19.09-24.587Zm-112.93-19.772 18.61 25.336-10.32-32.949-8.29 7.613Zm16.97-20.022 8.48 27.059 2.89-31.591-11.37 4.532Z" style="fill-rule:evenodd;clip-rule:evenodd;stroke-linejoin:round;stroke-miterlimit:2" transform="translate(-1908)"/></svg>

<?xml version="1.0" encoding="UTF-8" standalone="no"?>
<svg
   width="100%"
   height="100%"
   viewBox="0 0 192 192"
   version="1.1"
   xml:space="preserve"
   style="fill-rule:evenodd;clip-rule:evenodd;stroke-linejoin:round;stroke-miterlimit:2;"
   id="svg10"
   sodipodi:docname="carnet.svg"
   inkscape:version="1.2.1 (9c6d41e410, 2022-07-14)"
   xmlns:inkscape="http://www.inkscape.org/namespaces/inkscape"
   xmlns:sodipodi="http://sodipodi.sourceforge.net/DTD/sodipodi-0.dtd"
   xmlns="http://www.w3.org/2000/svg"
   xmlns:svg="http://www.w3.org/2000/svg"><defs
   id="defs14" /><sodipodi:namedview
   id="namedview12"
   pagecolor="#ffffff"
   bordercolor="#000000"
   borderopacity="0.25"
   inkscape:showpageshadow="2"
   inkscape:pageopacity="0.0"
   inkscape:pagecheckerboard="0"
   inkscape:deskcolor="#d1d1d1"
   showgrid="false"
   inkscape:zoom="5.3489583"
   inkscape:cx="96"
   inkscape:cy="95.906524"
   inkscape:window-width="1274"
   inkscape:window-height="1303"
   inkscape:window-x="1282"
   inkscape:window-y="36"
   inkscape:window-maximized="0"
   inkscape:current-layer="svg10" />
    <path
   d="M1967.59,35.127L1945.38,43.979C1942.47,45.141 1940.94,48.352 1941.88,51.346L1942.34,52.823C1942.32,52.842 1942.3,52.861 1942.28,52.88L1925.94,67.889C1923.69,69.959 1923.35,73.394 1925.16,75.86L1959.58,122.706L1956.98,151.128C1956.68,154.428 1959.11,157.347 1962.41,157.649L2035.74,164.352C2039.04,164.653 2041.96,162.223 2042.26,158.923L2042.54,155.83L2062.95,148.962C2066.07,147.913 2067.76,144.548 2066.74,141.42L2065.87,138.742C2066,138.63 2066.13,138.51 2066.26,138.384L2082.27,122.128C2084.38,119.986 2084.58,116.612 2082.74,114.237L2050.27,72.42C2050.24,72.378 2050.21,72.337 2050.18,72.296L2053.05,40.872C2053.35,37.572 2050.92,34.653 2047.62,34.351L1974.29,27.648C1970.99,27.347 1968.07,29.777 1967.77,33.077L1967.59,35.127ZM2040.55,45.755L2030.85,151.855C2030.85,151.855 1969.48,146.245 1969.48,146.245C1969.48,146.245 1979.18,40.145 1979.18,40.145L2040.55,45.755ZM2046.11,116.774L2043.73,142.767L2053.49,139.483L2046.11,116.774ZM2050.95,92.86L2061.7,125.912L2070.04,117.447L2050.95,92.86ZM1938.02,73.088L1956.63,98.424L1946.31,65.475L1938.02,73.088ZM1954.99,53.066L1963.47,80.125L1966.36,48.534L1954.99,53.066Z"
   id="path4"
   style="fill-rule:evenodd;clip-rule:evenodd;stroke-linejoin:round;stroke-miterlimit:2"
   transform="translate(-1908)"
   inkscape:label="Carnet-Form" />
</svg>
